assets/icons/24px/stroke/earth-24px.svg

<svg width="24" height="24" viewBox="0 0 24 24" fill="none" xmlns="http://www.w3.org/2000/svg">
<path fill-rule="evenodd" clip-rule="evenodd" d="M12 4C7.58172 4 4 7.58172 4 12C4 16.4183 7.58172 20 12 20C16.4183 20 20 16.4183 20 12C20 7.58172 16.4183 4 12 4ZM2 12C2 6.47715 6.47715 2 12 2C17.5228 2 22 6.47715 22 12C22 17.5228 17.5228 22 12 22C6.47715 22 2 17.5228 2 12Z" fill="white"/>
<path d="M10.7308 17.1227L11.0597 17.2732C11.4945 17.4723 11.7692 17.8793 11.7692 18.3245C11.7692 18.9737 12.7911 20.25 13.5 20.25C15.6396 20.25 16.4484 20.1708 18 18.75C18.2754 18.4978 18.75 17.6067 18.75 17.25C18.75 16.5073 17.3425 15.6963 16.5314 15.6963H16.4423C15.582 15.6963 14.8846 15.0577 14.8846 14.2699V13.7945C14.8846 12.7441 13.9547 11.8927 12.8077 11.8927H9.69231C9.11878 11.8927 8.65385 11.4669 8.65385 10.9418C8.65385 10.4166 9.11878 9.99085 9.69231 9.99085H10.4643C11.185 9.99085 11.7692 9.45588 11.7692 8.79596V8.64165C11.7692 7.90198 12.5606 7.37968 13.3269 7.61358C14.0932 7.84749 14.8846 7.32519 14.8846 6.58552V6.29587C14.8846 5.73188 14.2771 4.16815 13.6683 3.81504C13.5637 3.75442 13.4392 3.74993 13.3184 3.74993L11.4316 3.74995C11.3108 3.74996 11.1904 3.73694 11.0703 3.72367C10.108 3.61733 9.08394 4.04182 8.25 4.5L6 6C5.04287 6.52586 4.5 7.76351 4.5 8.7856C4.5 9.55731 4.83479 10.2974 5.43071 10.8431L9.103 14.2058C9.48033 14.5513 9.69231 15.0199 9.69231 15.5085V15.5841C9.69231 16.2356 10.0943 16.8313 10.7308 17.1227Z" fill="white"/>
</svg>

<svg width="24" height="24" fill="none" xmlns="http://www.w3.org/2000/svg"><path fill-rule="evenodd" clip-rule="evenodd" d="M12 4a8 8 0 1 0 0 16 8 8 0 0 0 0-16zM2 12C2 6.477 6.477 2 12 2s10 4.477 10 10-4.477 10-10 10S2 17.523 2 12z" fill="#fff"/><path d="M10.73 17.123l.33.15c.434.2.71.606.71 1.052 0 .649 1.021 1.925 1.73 1.925 2.14 0 2.948-.08 4.5-1.5.275-.252.75-1.143.75-1.5 0-.743-1.407-1.554-2.219-1.554h-.089c-.86 0-1.557-.638-1.557-1.426v-.476c0-1.05-.93-1.901-2.077-1.901H9.692c-.573 0-1.038-.426-1.038-.951 0-.525.465-.951 1.038-.951h.772c.721 0 1.305-.535 1.305-1.195v-.154c0-.74.792-1.262 1.558-1.028.766.233 1.558-.289 1.558-1.028v-.29c0-.564-.608-2.128-1.217-2.481-.104-.06-.229-.065-.35-.065h-1.886c-.121 0-.242-.013-.362-.026-.962-.107-1.986.318-2.82.776L6 6c-.957.526-1.5 1.764-1.5 2.786 0 .771.335 1.511.93 2.057l3.673 3.363c.377.345.59.814.59 1.303v.075c0 .652.401 1.247 1.038 1.539z" fill="#fff"/></svg>
